svg/fluentui-system-icons/ic_fluent_document_lock_48_filled.svg

<svg width="48" height="48" viewBox="0 0 48 48" fill="none" xmlns="http://www.w3.org/2000/svg">
<path d="M24 4V15.25C24 17.3211 25.6789 19 27.75 19H40V40C40 41.6569 38.6569 43 37 43H24V33C24 30.5603 22.2527 28.5287 19.9412 28.0884C19.4944 24.6531 16.5571 22 13 22C11.0413 22 9.27052 22.8045 8 24.101V7C8 5.34315 9.34315 4 11 4H24ZM26.5 4.46429V15.25C26.5 15.9404 27.0596 16.5 27.75 16.5H39.4615L26.5 4.46429ZM8 30H7C5.34315 30 4 31.3431 4 33V43C4 44.6569 5.34315 46 7 46H19C20.6569 46 22 44.6569 22 43V33C22 31.3431 20.6569 30 19 30H18V29C18 26.2386 15.7614 24 13 24C10.2386 24 8 26.2386 8 29V30ZM10.5 29C10.5 27.6193 11.6193 26.5 13 26.5C14.3807 26.5 15.5 27.6193 15.5 29V30H10.5V29ZM16 38C16 39.6569 14.6569 41 13 41C11.3431 41 10 39.6569 10 38C10 36.3431 11.3431 35 13 35C14.6569 35 16 36.3431 16 38Z" fill="#212121"/>
</svg>

<svg xmlns="http://www.w3.org/2000/svg" width="48" height="48"><path d="M24 4v11.25A3.75 3.75 0 0 0 27.75 19H40v21a3 3 0 0 1-3 3H24V33a5.002 5.002 0 0 0-4.059-4.912A7.001 7.001 0 0 0 8 24.101V7a3 3 0 0 1 3-3h13Zm2.5.464V15.25c0 .69.56 1.25 1.25 1.25h11.712L26.5 4.464ZM8 30H7a3 3 0 0 0-3 3v10a3 3 0 0 0 3 3h12a3 3 0 0 0 3-3V33a3 3 0 0 0-3-3h-1v-1a5 5 0 0 0-10 0v1Zm2.5-1a2.5 2.5 0 0 1 5 0v1h-5v-1Zm5.5 9a3 3 0 1 1-6 0 3 3 0 0 1 6 0Z"/></svg>
